X: 19974
T: Jim Conroy's
R: reel
M: 4/4
K: Gmajor
A2BG EGDE|G2BG dGBG|A2BG EGDG|1 Bdef gedB:|2 Bdef gede||
g2bg egde|gabg fgab|g2bg egdB|dega bg~g2|
g2bg egde|gabg fgac'|bgaf gefd|gaba gedB||

